public/icons/search.svg

<svg width="16" height="16" viewBox="0 0 16 16" fill="none" xmlns="http://www.w3.org/2000/svg">
   <path fill-rule="evenodd" clip-rule="evenodd" d="M11.5413 10.598L13.8047 12.862C14.0653 13.1227 14.0653 13.544 13.8047 13.8047C13.6747 13.9347 13.504 14 13.3333 14C13.1627 14 12.992 13.9347 12.862 13.8047L10.598 11.5413C9.69533 12.2433 8.564 12.6667 7.33333 12.6667C4.39267 12.6667 2 10.274 2 7.33333C2 4.39267 4.39267 2 7.33333 2C10.274 2 12.6667 4.39267 12.6667 7.33333C12.6667 8.564 12.2433 9.69533 11.5413 10.598ZM7.33333 3.33333C5.12733 3.33333 3.33333 5.12733 3.33333 7.33333C3.33333 9.53933 5.12733 11.3333 7.33333 11.3333C9.53933 11.3333 11.3333 9.53933 11.3333 7.33333C11.3333 5.12733 9.53933 3.33333 7.33333 3.33333Z" fill="black"/>
   <mask id="mask0_36_4919" style="mask-type:luminance" maskUnits="userSpaceOnUse" x="2" y="2" width="13" height="12">
      <path fill-rule="evenodd" clip-rule="evenodd" d="M11.5413 10.598L13.8047 12.862C14.0653 13.1227 14.0653 13.544 13.8047 13.8047C13.6747 13.9347 13.504 14 13.3333 14C13.1627 14 12.992 13.9347 12.862 13.8047L10.598 11.5413C9.69533 12.2433 8.564 12.6667 7.33333 12.6667C4.39267 12.6667 2 10.274 2 7.33333C2 4.39267 4.39267 2 7.33333 2C10.274 2 12.6667 4.39267 12.6667 7.33333C12.6667 8.564 12.2433 9.69533 11.5413 10.598ZM7.33333 3.33333C5.12733 3.33333 3.33333 5.12733 3.33333 7.33333C3.33333 9.53933 5.12733 11.3333 7.33333 11.3333C9.53933 11.3333 11.3333 9.53933 11.3333 7.33333C11.3333 5.12733 9.53933 3.33333 7.33333 3.33333Z" fill="white"/>
   </mask>
   <g mask="url(#mask0_36_4919)"></g>
</svg>

<svg fill="none" viewBox="0 0 16 16" xmlns="http://www.w3.org/2000/svg">
    <path d="m11.541 10.598 2.2634 2.264c0.2606 0.2607 0.2606 0.682 0 0.9427-0.13 0.13-0.3007 0.1953-0.4714 0.1953-0.1706 0-0.3413-0.0653-0.4713-0.1953l-2.264-2.2634c-0.90267 0.702-2.034 1.1254-3.2647 1.1254-2.9407 0-5.3333-2.3927-5.3333-5.3334 0-2.9407 2.3927-5.3333 5.3333-5.3333 2.9407 0 5.3334 2.3927 5.3334 5.3333 0 1.2307-0.4234 2.362-1.1254 3.2647zm-4.208-7.2647c-2.206 0-4 1.794-4 4s1.794 4 4 4 4-1.794 4-4-1.794-4-4-4z" clip-rule="evenodd" fill="#000" fill-rule="evenodd"
        fill="currentColor" />
    <mask x="2" y="2" width="13" height="12" style="mask-type:luminance" maskUnits="userSpaceOnUse">
        <path d="m11.541 10.598 2.2634 2.264c0.2606 0.2607 0.2606 0.682 0 0.9427-0.13 0.13-0.3007 0.1953-0.4714 0.1953-0.1706 0-0.3413-0.0653-0.4713-0.1953l-2.264-2.2634c-0.90267 0.702-2.034 1.1254-3.2647 1.1254-2.9407 0-5.3333-2.3927-5.3333-5.3334 0-2.9407 2.3927-5.3333 5.3333-5.3333 2.9407 0 5.3334 2.3927 5.3334 5.3333 0 1.2307-0.4234 2.362-1.1254 3.2647zm-4.208-7.2647c-2.206 0-4 1.794-4 4s1.794 4 4 4 4-1.794 4-4-1.794-4-4-4z" clip-rule="evenodd" fill="#fff" fill-rule="evenodd"/>
    </mask>
</svg>
